packages/core/src/svgs/nest.svg

<svg width="24" height="24" viewBox="0 0 24 24" fill="none" xmlns="http://www.w3.org/2000/svg">
<g clip-path="url(#clip0_31_14704)">
<path d="M0 0H24V24H0V0Z" fill="url(#paint0_linear_31_14704)"/>
<path d="M17.4271 10.3354C18.0322 7.46271 16.6968 6 14.1768 6C12.6635 6 11.4048 6.555 10.2682 7.58743L10.4881 6.58586C10.4881 6.58586 10.0844 6.42857 9.27739 6.42857C8.39582 6.42857 7.96596 6.58586 7.96596 6.58586L5.57153 17.8247C5.57153 17.8247 5.92468 18 6.80582 18C7.61325 18 8.09153 17.8247 8.09153 17.8247L9.83839 9.65614C10.72 8.64643 11.8917 8.14286 13.0017 8.14286C14.6161 8.14286 15.2071 8.84871 14.9071 10.2609L13.285 17.8251C13.285 17.8251 13.6621 18 14.5192 18C15.3507 18 15.805 17.8247 15.805 17.8247L17.4271 10.3354Z" fill="white"/>
</g>
<defs>
<linearGradient id="paint0_linear_31_14704" x1="4.46486" y1="4.16229" x2="29.2059" y2="32.5787" gradientUnits="userSpaceOnUse">
<stop stop-color="#1A1E21"/>
<stop offset="1" stop-color="#06060A"/>
</linearGradient>
<clipPath id="clip0_31_14704">
<rect width="24" height="24" fill="white"/>
</clipPath>
</defs>
</svg>

<svg xmlns="http://www.w3.org/2000/svg" width="24" height="24" fill="none" viewBox="0 0 24 24"><g clip-path="url(#a)"><path fill="url(#b)" d="M0 0h24v24H0z"/><path fill="#fff" d="M17.427 10.335C18.032 7.463 16.697 6 14.177 6c-1.513 0-2.772.555-3.909 1.587l.22-1.001s-.404-.157-1.21-.157c-.882 0-1.312.157-1.312.157L5.572 17.825S5.925 18 6.806 18c.807 0 1.286-.175 1.286-.175l1.746-8.169c.882-1.01 2.054-1.513 3.164-1.513 1.614 0 2.205.706 1.905 2.118l-1.622 7.564s.377.175 1.234.175c.832 0 1.286-.175 1.286-.175z"/></g><defs><linearGradient id="b" x1="4.465" x2="29.206" y1="4.162" y2="32.579" gradientUnits="userSpaceOnUse"><stop stop-color="#1A1E21"/><stop offset="1" stop-color="#06060A"/></linearGradient><clipPath id="a"><path fill="#fff" d="M0 0h24v24H0z"/></clipPath></defs></svg>
